X: 21657
T: Killoran's
R: reel
M: 4/4
K: Amajor
|:F|E2EF ABcA|eAcA BAFA|E2EF ABcB|AF~F2 dFAF|
E2EF ABcd|efec BAFA|E2EF ~A3c|BABc A3:|
|:B|A2ce fece|fecA BAFB|A2ce fecf|ecBc A3F|
A2ce faaf|eAcA BF~F2|a2ae faec|BdcB A3:|

